X: 2
T: Ben Hill
R: reel
M: 4/4
L: 1/8
K: Gmaj
|: GA | ~B2GB AGEG | DGGF G2AB | c2Ac BAGF | EAAG FDGA || B2GB AGEG | DGGF GABc | (3dedBd gdBd |1 cAFA G2 :|2 cAFA GABc ||: (3dedBd gdBd |(3dedBd gd(3Bcd | e2ce agfe | defg agfe || (3dedBd gdBd |(3dedBd gdBd | c2Ac BAGB |1 AGFA GABc :|2 AGFA G2 |


Tune 6899	Setting 18489

